style-guide/assets/xd-icons-footnote-small.svg

<?xml version="1.0" encoding="UTF-8"?>
<svg width="18px" height="18px" viewBox="0 0 18 18" version="1.1" xmlns="http://www.w3.org/2000/svg" xmlns:xlink="http://www.w3.org/1999/xlink">
    <!-- Generator: Sketch 51.3 (57544) - http://www.bohemiancoding.com/sketch -->
    <title>footnote</title>
    <desc>Created with Sketch.</desc>
    <defs></defs>
    <g id="footnote" stroke="none" stroke-width="1" fill="none" fill-rule="evenodd">
        <path d="M8.0049,10 C8.5569,10 9.0049,10.448 9.0049,11 C9.0049,11.552 8.5569,12 8.0049,12 L6.0049,12 C5.4529,12 5.0049,11.552 5.0049,11 L5.0049,2 C5.0049,1.448 5.4529,1 6.0049,1 L8.0049,1 C8.5569,1 9.0049,1.448 9.0049,2 C9.0049,2.552 8.5569,3 8.0049,3 L7.0049,3 L7.0049,10 L8.0049,10 Z M6.5,14.0049 C7.33,14.0049 8,14.6749 8,15.5049 C8,16.3349 7.33,17.0049 6.5,17.0049 C5.67,17.0049 5,16.3349 5,15.5049 C5,14.6749 5.67,14.0049 6.5,14.0049 Z M10.0049,9 L10.0049,6 C9.7489,6 9.4929,5.902 9.2979,5.707 C8.9069,5.316 8.9069,4.684 9.2979,4.293 L10.2969,3.294 C10.3009,3.29 10.3059,3.284 10.3119,3.279 C10.3119,3.278 10.3129,3.278 10.3139,3.278 C10.4049,3.19 10.5089,3.122 10.6209,3.077 C10.7379,3.028 10.8669,3.001 11.0029,3 L11.0049,3 L11.0079,3 L11.0109,3 C11.1439,3.001 11.2709,3.027 11.3869,3.075 C11.5049,3.124 11.6159,3.196 11.7119,3.293 C11.8079,3.39 11.8809,3.5 11.9299,3.618 C11.9779,3.734 12.0039,3.86 12.0049,3.994 L12.0049,3.997 L12.0049,4 L12.0049,9 C12.0049,9.552 11.5569,10 11.0049,10 C10.4529,10 10.0049,9.552 10.0049,9 Z M16.0049,1 C16.5569,1 17.0049,1.448 17.0049,2 L17.0049,11 C17.0049,11.552 16.5569,12 16.0049,12 L14.0049,12 C13.4529,12 13.0049,11.552 13.0049,11 C13.0049,10.448 13.4529,10 14.0049,10 L15.0049,10 L15.0049,3 L14.0049,3 C13.4529,3 13.0049,2.552 13.0049,2 C13.0049,1.448 13.4529,1 14.0049,1 L16.0049,1 Z M1.5,14.0049 C2.33,14.0049 3,14.6749 3,15.5049 C3,16.3349 2.33,17.0049 1.5,17.0049 C0.67,17.0049 -1.95399252e-14,16.3349 -1.95399252e-14,15.5049 C-1.95399252e-14,14.6749 0.67,14.0049 1.5,14.0049 Z M11.5103,14.0049 C12.3403,14.0049 13.0203,14.6749 13.0203,15.5049 C13.0203,16.3349 12.3403,17.0049 11.5103,17.0049 C10.6803,17.0049 10.0003,16.3349 10.0003,15.5049 C10.0003,14.6749 10.6803,14.0049 11.5103,14.0049 Z" id="Fill-11" fill="#000000"></path>
    </g>
</svg>

<svg viewBox="0 0 18 18" xmlns="http://www.w3.org/2000/svg">
  <path d="M8.005 10a1 1 0 0 1 0 2h-2a1 1 0 0 1-1-1V2a1 1 0 0 1 1-1h2a1 1 0 0 1 0 2h-1v7h1zM6.5 14.005c.83 0 1.5.67 1.5 1.5s-.67 1.5-1.5 1.5-1.5-.67-1.5-1.5.67-1.5 1.5-1.5zM10.005 9V6a.999.999 0 0 1-.707-1.707l.999-.999.015-.015.002-.001A1.005 1.005 0 0 1 11.003 3h.008a1 1 0 0 1 .994.994V9a1 1 0 0 1-2 0zm6-8a1 1 0 0 1 1 1v9a1 1 0 0 1-1 1h-2a1 1 0 0 1 0-2h1V3h-1a1 1 0 0 1 0-2h2zM1.5 14.005c.83 0 1.5.67 1.5 1.5s-.67 1.5-1.5 1.5-1.5-.67-1.5-1.5.67-1.5 1.5-1.5zm10.01 0c.83 0 1.51.67 1.51 1.5s-.68 1.5-1.51 1.5-1.51-.67-1.51-1.5.68-1.5 1.51-1.5z"/>
</svg>
